!!!COM:	Busnoys, Antoine
!!!CDT:	~1430///-1492/11/06
!!!OTL:	Resjois toy terre de France / Rex pacificus
!!!AGN:	Song; Chanson
!!!SCT:	Bus3053
!!!SCA:	Bus3053
!!!voices:	4
**kern	**kern	**kern	**kern
*staff4	*staff3	*staff2	*staff1
*Ivox	*Ivox	*Ivox	*Ivox
*I"Contra	*I"Tenor	*I"Contra	*I"Superius
*I'C	*I'T	*I'C	*I'S
*>[A,B]	*>[A,B]	*>[A,B]	*>[A,B]
*>A	*>A	*>A	*>A
*clefGv2	*clefGv2	*clefGv2	*clefG2
*k[]	*k[b-]	*k[b-]	*k[]
*M3/1	*M3/1	*M3/1	*M3/1
*met(O)	*met(O)	*met(O)	*met(O)
=1-	=1-	=1-	=1-
!LO:TX:Y=24:t=Rex pacificus	!	!	!
0d	0G	1G	0g
.	.	1B-	.
1d	1D	[1A	2.f
.	.	.	4g
=2	=2	=2	=2
1c	1.F	1A]	2a
.	.	.	2b
1A	.	1A	1cc
.	2G	.	.
1c	1A	1F	2a
.	.	.	2cc
=3	=3	=3	=3
2d	2G	1r	2b
2.e	1c	.	2.a
.	.	1r	.
4d	.	.	4g
1d	2B-	.	1g
.	1A	1A	.
2c	.	.	2f#i
=4	=4	=4	=4
1d	0.G	2B-	1g
.	.	2c	.
1r	.	1d	0b
1d	.	1g	.
=5	=5	=5	=5
0e	1r	0c	1cc
.	1A	.	1cc
1d	1B-	1G	[1dd
=6	=6	=6	=6
1e	1B-	1r	2dd]
.	.	.	2g
1.d	0G	1g	2cc
.	.	.	2dd
.	.	1g	1b
2c	.	.	.
=7	=7	=7	=7
0c	0C	0e	0.cc
1r	1C	1c	.
=8	=8	=8	=8
1d	1G	1Bn	0.r
1c	2E	2G	.
.	1F	1A	.
2d	.	.	.
[2e	2E	2Bni	.
=9	=9	=9	=9
2e]	2C	2c	0.r
2e	2.G	4d	.
.	.	2Bni	.
2d	.	.	.
.	4F	4A	.
1g	4G	2Bni	.
.	4B-	.	.
.	1A	2.c	.
2f#i	.	.	.
.	.	4Bni	.
=10	=10	=10	=10
0g	1G	1d	1r
.	0c	2.e	1.cc
.	.	4f	.
1e	.	1g	.
.	.	.	2dd
=11	=11	=11	=11
1f	1d	2f	1dd
.	.	0a	.
0e	0A	.	1.cc
.	.	2a	2b
=12	=12	=12	=12
1d	1B-	1f	1dd
1d	1G	1g	1b-
1c	2A	2e	2cc
.	2F	2f	2a
=13	=13	=13	=13
1B	2G	2d	2r
.	2E	2c	2g
2A	2F	2A	2a
1d	2G	2r	4b-i
.	.	.	2g
.	1A	2r	.
.	.	.	4f#i
2c	.	2A	4f#i
.	.	.	4e
=14	=14	=14	=14
0.dN	1G	1G	1g
.	0DN	0AN	1a
.	.	.	1fN
=15	=15	=15	=15
[0.dl	1G	1B-	2r
.	.	.	2g
.	2F	2A	2a
.	1G	2G	2b
.	.	2d	2g
.	[2B-	2B-	[2dd
=16	=16	=16	=16
0.d_	2B-]	2G	4dd]
.	.	.	4b
.	2A	2F	4cc
.	.	.	4dd
.	1G	1B-	2b-i
.	.	.	4a
.	.	.	4g
.	1D	1A	2.f#i
.	.	.	4e
=17	=17	=17	=17
0.d]	0.Gl	0.Gl	0.gl
!!LO:LB:i:g=z
=18||	=18||	=18||	=18||
*>B	*>B	*>B	*>B
*clefGv2	*clefGv2	*clefGv2	*clefG2
*k[]	*k[b-]	*k[b-]	*k[]
*M2/1	*M2/1	*M2/1	*M2/1
*met(C|)	*met(C|)	*met(C|)	*met(C|)
!!section: C'est celuy qui fera
!!!OMD: C'est celuy qui fera
0r	[0D	[0d	0a
=19	=19	=19	=19
0r	1D]	1d]	1f
.	1E	2c	1g
.	.	2B-	.
=20	=20	=20	=20
0r	0F	0A	0a
=21	=21	=21	=21
0r	0G	1G	1b-
.	.	[1d	1b-i
=22	=22	=22	=22
0r	0F	2d]	1.a
.	.	2c	.
.	.	2A	.
.	.	2G	[2dd
=23	=23	=23	=23
0r	0G	2B-	2dd]
.	.	2c	2cc
.	.	[1d	2b-i
.	.	.	2g
=24	=24	=24	=24
0r	0D	0d]	1a
.	.	.	1f
=25	=25	=25	=25
0r	0G	0Bn	2d
.	.	.	2e
.	.	.	2d
.	.	.	[2g
=26	=26	=26	=26
0r	1A	1c	2g]
.	.	.	2f
.	2F	2A	1a
.	[2G	[2Bni	.
=27	=27	=27	=27
0r	2G]	2B]	2d
.	2A	1A	2e
.	2D	.	2.f
.	2F	2A	.
.	.	.	4d
=28	=28	=28	=28
0r	2E	2Bni	1e
.	1A	2c	.
.	.	2A	2f
.	2G	[2Bni	2e
=29	=29	=29	=29
0r	2A	4B]	2f
.	.	4A	.
.	2F	2A	2d
.	1E	2.G	2B
.	.	.	2c#i
.	.	4F	.
=30	=30	=30	=30
0r	[0D	[0A	0d
=31	=31	=31	=31
0r	0D]	0A]	1r
.	.	.	1f
=32	=32	=32	=32
0c	0A	0r	1e
.	.	.	1a
=33	=33	=33	=33
0d	0B-	0G	2g
.	.	.	1g
.	.	.	2f
=34	=34	=34	=34
0e	0A	1.c	0a
.	.	2d	.
=35	=35	=35	=35
0e	0c	2e	1g
.	.	2f	.
.	.	[1g	1cc
=36	=36	=36	=36
0d	0G	2g]	1b
.	.	2f	.
.	.	1g	[1dd
=37	=37	=37	=37
0f	1F	2r	2dd]
.	.	1a	2cc
.	2A	.	1a
.	2B-	2d	.
=38	=38	=38	=38
1e	1c	2e	1g
.	.	2g	.
1c	1A	2f	[1cc
.	.	2e	.
=39	=39	=39	=39
0d	0G	[0g	2cc]
.	.	.	2b
.	.	.	2b
.	.	.	2a
=40	=40	=40	=40
0c	0r	0g]	0cc
=41	=41	=41	=41
1.e	3%4cV	1r	0r
.	.	[1g	.
.	3%2GZ	.	.
2d	.	.	.
=42	=42	=42	=42
1e	1c	2g]	0r
.	.	2f	.
1g	1B-	[1d	.
=43	=43	=43	=43
1.f#i	0A	2d]	0r
.	.	2c	.
.	.	2c	.
2e	.	2B-	.
=44	=44	=44	=44
0g	0G	1d	0b
.	.	1e	.
=45	=45	=45	=45
0r	0d	1.f	1a
.	.	.	[1dd
.	.	2d	.
=46	=46	=46	=46
0g	0G	0d	1dd]
.	.	.	[1dd
=47	=47	=47	=47
1f	0D	1r	2dd]
.	.	.	2cc
1d	.	1f	2b
.	.	.	2a
=48	=48	=48	=48
0e	1.A	1e	1.cc
.	.	[1a	.
.	2G	.	2b
=49	=49	=49	=49
1d	1F	2a]	1dd
.	.	2f	.
1c	1E	1g	1ee
=50	=50	=50	=50
1d	0D	[0a	2ff
.	.	.	2.dd
1f	.	.	.
.	.	.	4cc
.	.	.	2dd
=51	=51	=51	=51
0e	0A	0a_	2ee
.	.	.	1cc#i
.	.	.	2b
=52	=52	=52	=52
[0dl	[0D	0a]	1.dd
.	.	.	4cc
.	.	.	4b
=53	=53	=53	=53
0d_	0D]	0r	1a
.	.	.	1r
=54	=54	=54	=54
0d_	3%2.DV	3%2AV	3%2.fV
.	.	3%2B-	.
.	3E	.	3g
.	3%2FZ	3%2AZ	3%2aZ
=55	=55	=55	=55
0d_	3%2GV	3%2GV	3%2b-iV
.	3%2F	3%2A	3%4aZ
.	3%2DZ	3%2FZ	.
=56	=56	=56	=56
0d_	3%2rV	3%4GV	3%2.ddV
.	3%2G	.	.
.	.	.	3cc
.	3%2FZ	3%2AZ	3%2aZ
=57	=57	=57	=57
0d_	3%4B-V	3%4GV	3%2b-V
.	.	.	3%2g
.	3%2AZ	3%2DZ	3%2fZ
=58	=58	=58	=58
0d_	3%2GV	3%2GV	3%2b-iV
.	3%2F	3%2A	3%2.a
.	[3%2GZ	[3%2B-Z	.
.	.	.	3gZ
=59	=59	=59	=59
0d_	3%2G]V	3B-]V	3%4gV
.	.	3G	.
.	3%4DZ	3%4AZ	.
.	.	.	3%2f#iZ
=60	=60	=60	=60
0d]	0Gl	0Gl	0gl
==	==	==	==
*-	*-	*-	*-
!!!RDF**kern: l=long note in original notation
!!!RDF**kern: i=editorial accidental
!!!RDF**kern: V=start of tuplet marker
!!!RDF**kern: Z=end of tuplet marker
!!!RDF**kern: N=signum congruentiae
!!!ENC:	Chris Gage 04-22-2015
!!!END:	2016/02/08/
!!!EED:	Jesse Rodin
!!!EEV:	2016/02/16/
!!!ONB:	Translated from MusicXML and edited on 2016/02/16/ by Craig Sapp
!!muse2ps: C^@{COM}^i2I150v85,85,85,150Q16c80
